icons/numix/16x16/status/diodon-panel.svg

<?xml version="1.0" encoding="UTF-8" standalone="no"?>
<svg
   xmlns:dc="http://purl.org/dc/elements/1.1/"
   xmlns:cc="http://creativecommons.org/ns#"
   xmlns:rdf="http://www.w3.org/1999/02/22-rdf-syntax-ns#"
   xmlns:svg="http://www.w3.org/2000/svg"
   xmlns="http://www.w3.org/2000/svg"
   xmlns:sodipodi="http://sodipodi.sourceforge.net/DTD/sodipodi-0.dtd"
   xmlns:inkscape="http://www.inkscape.org/namespaces/inkscape"
   width="16"
   height="16"
   viewBox="0 0 16 16"
   id="svg2"
   version="1.1"
   inkscape:version="0.48.5 r10040"
   sodipodi:docname="diodon-panel.svg">
  <metadata
     id="metadata14">
    <rdf:RDF>
      <cc:Work
         rdf:about="">
        <dc:format>image/svg+xml</dc:format>
        <dc:type
           rdf:resource="http://purl.org/dc/dcmitype/StillImage" />
      </cc:Work>
    </rdf:RDF>
  </metadata>
  <defs
     id="defs12" />
  <sodipodi:namedview
     pagecolor="#ffffff"
     bordercolor="#666666"
     borderopacity="1"
     objecttolerance="10"
     gridtolerance="10"
     guidetolerance="10"
     inkscape:pageopacity="0"
     inkscape:pageshadow="2"
     inkscape:window-width="688"
     inkscape:window-height="480"
     id="namedview10"
     showgrid="false"
     inkscape:zoom="14.75"
     inkscape:cx="8"
     inkscape:cy="8"
     inkscape:window-x="0"
     inkscape:window-y="0"
     inkscape:window-maximized="0"
     inkscape:current-layer="svg2" />
  <path
     style="fill:#ececec;fill-opacity:1"
     inkscape:connector-curvature="0"
     id="path8"
     d="m 13.816406,11.722656 c 0,0.59375 -0.21875,1.09375 -0.65625,1.492188 -0.4375,0.402344 -0.980468,0.601562 -1.628906,0.601562 -0.746094,0 -1.398438,-0.253906 -1.953125,-0.757812 L 3.121094,7.148438 C 2.496094,6.5625 2.183594,5.875 2.183594,5.082031 c 0,-0.804687 0.304687,-1.492187 0.914062,-2.054687 0.609375,-0.5625 1.351563,-0.84375 2.234375,-0.84375 0.875,0 1.632813,0.285156 2.269531,0.859375 l 5.027344,4.613281 c 0.05469,0.050781 0.08203,0.109375 0.08203,0.167969 0,0.082031 -0.08203,0.199219 -0.25,0.355469 -0.171874,0.152343 -0.30078,0.230468 -0.386717,0.230468 C 12,8.410156 11.9375,8.386719 11.882812,8.335938 L 6.84375,3.710938 C 6.40625,3.320312 5.90625,3.125 5.339844,3.125 c -0.585938,0 -1.082032,0.191406 -1.488282,0.574219 -0.402343,0.378906 -0.605468,0.839843 -0.605468,1.375 0,0.535156 0.210937,0.992187 0.632812,1.378906 l 6.449219,5.917969 c 0.347656,0.320312 0.75,0.480468 1.203125,0.480468 0.355469,0 0.648438,-0.105468 0.882812,-0.320312 0.230469,-0.214844 0.347657,-0.480469 0.347657,-0.808594 0,-0.414062 -0.171875,-0.78125 -0.523438,-1.101562 L 7.410156,6.195312 C 7.265625,6.074219 7.097656,6.011719 6.910156,6.011719 6.75,6.011719 6.617188,6.0625 6.511719,6.15625 6.40625,6.253906 6.355469,6.375 6.355469,6.523438 c 0,0.160156 0.066406,0.3125 0.207031,0.449218 l 3.40625,3.121094 c 0.054688,0.05078 0.085938,0.105469 0.085938,0.167969 0,0.08203 -0.085938,0.199219 -0.257813,0.359375 -0.171875,0.15625 -0.304687,0.234375 -0.390625,0.234375 -0.066406,0 -0.128906,-0.02344 -0.183594,-0.07422 L 5.8125,7.65625 C 5.464844,7.347656 5.289062,6.96875 5.289062,6.523438 c 0,-0.417969 0.160157,-0.769532 0.476563,-1.058594 0.3125,-0.289063 0.699219,-0.433594 1.152344,-0.433594 0.488281,0 0.902343,0.160156 1.238281,0.480469 l 4.832031,4.421875 c 0.554688,0.5 0.828125,1.09375 0.828125,1.789062 z" />
</svg>

<svg xmlns="http://www.w3.org/2000/svg" width="16" height="16" viewBox="0 0 16 16">
 <g>
  <path d="M 13.816406 12.453125 C 13.816406 13.046875 13.597656 13.542969 13.160156 13.945312 C 12.722656 14.34375 12.179688 14.546875 11.53125 14.546875 C 10.785156 14.546875 10.132812 14.292969 9.578125 13.785156 L 3.121094 7.875 C 2.496094 7.289062 2.183594 6.601562 2.183594 5.8125 C 2.183594 5.003906 2.488281 4.316406 3.097656 3.753906 C 3.707031 3.191406 4.449219 2.910156 5.332031 2.910156 C 6.207031 2.910156 6.964844 3.195312 7.601562 3.769531 L 12.628906 8.382812 C 12.683594 8.433594 12.710938 8.492188 12.710938 8.550781 C 12.710938 8.632812 12.628906 8.75 12.460938 8.90625 C 12.289062 9.0625 12.160156 9.136719 12.074219 9.136719 C 12 9.136719 11.9375 9.113281 11.882812 9.0625 L 6.84375 4.441406 C 6.40625 4.050781 5.90625 3.851562 5.339844 3.851562 C 4.753906 3.851562 4.257812 4.042969 3.851562 4.425781 C 3.449219 4.804688 3.246094 5.265625 3.246094 5.804688 C 3.246094 6.335938 3.457031 6.796875 3.878906 7.179688 L 10.328125 13.097656 C 10.675781 13.417969 11.078125 13.578125 11.53125 13.578125 C 11.886719 13.578125 12.179688 13.472656 12.414062 13.257812 C 12.644531 13.046875 12.761719 12.777344 12.761719 12.453125 C 12.761719 12.035156 12.589844 11.667969 12.238281 11.347656 L 7.410156 6.921875 C 7.265625 6.800781 7.097656 6.738281 6.910156 6.738281 C 6.75 6.738281 6.617188 6.789062 6.511719 6.882812 C 6.40625 6.980469 6.355469 7.101562 6.355469 7.25 C 6.355469 7.414062 6.421875 7.5625 6.5625 7.699219 L 9.96875 10.820312 C 10.023438 10.871094 10.054688 10.929688 10.054688 10.988281 C 10.054688 11.070312 9.96875 11.191406 9.796875 11.347656 C 9.625 11.503906 9.492188 11.582031 9.40625 11.582031 C 9.339844 11.582031 9.277344 11.558594 9.222656 11.507812 L 5.8125 8.382812 C 5.464844 8.074219 5.289062 7.695312 5.289062 7.25 C 5.289062 6.832031 5.449219 6.480469 5.765625 6.191406 C 6.078125 5.902344 6.464844 5.757812 6.917969 5.757812 C 7.40625 5.757812 7.820312 5.917969 8.15625 6.238281 L 12.988281 10.660156 C 13.542969 11.160156 13.816406 11.753906 13.816406 12.453125 Z " fill-opacity="0.282"/>
  <path d="M 13.816406 11.722656 C 13.816406 12.316406 13.597656 12.816406 13.160156 13.214844 C 12.722656 13.617188 12.179688 13.816406 11.53125 13.816406 C 10.785156 13.816406 10.132812 13.5625 9.578125 13.058594 L 3.121094 7.148438 C 2.496094 6.5625 2.183594 5.875 2.183594 5.082031 C 2.183594 4.277344 2.488281 3.589844 3.097656 3.027344 C 3.707031 2.464844 4.449219 2.183594 5.332031 2.183594 C 6.207031 2.183594 6.964844 2.46875 7.601562 3.042969 L 12.628906 7.65625 C 12.683594 7.707031 12.710938 7.765625 12.710938 7.824219 C 12.710938 7.90625 12.628906 8.023438 12.460938 8.179688 C 12.289062 8.332031 12.160156 8.410156 12.074219 8.410156 C 12 8.410156 11.9375 8.386719 11.882812 8.335938 L 6.84375 3.710938 C 6.40625 3.320312 5.90625 3.125 5.339844 3.125 C 4.753906 3.125 4.257812 3.316406 3.851562 3.699219 C 3.449219 4.078125 3.246094 4.539062 3.246094 5.074219 C 3.246094 5.609375 3.457031 6.066406 3.878906 6.453125 L 10.328125 12.371094 C 10.675781 12.691406 11.078125 12.851562 11.53125 12.851562 C 11.886719 12.851562 12.179688 12.746094 12.414062 12.53125 C 12.644531 12.316406 12.761719 12.050781 12.761719 11.722656 C 12.761719 11.308594 12.589844 10.941406 12.238281 10.621094 L 7.410156 6.195312 C 7.265625 6.074219 7.097656 6.011719 6.910156 6.011719 C 6.75 6.011719 6.617188 6.0625 6.511719 6.15625 C 6.40625 6.253906 6.355469 6.375 6.355469 6.523438 C 6.355469 6.683594 6.421875 6.835938 6.5625 6.972656 L 9.96875 10.09375 C 10.023438 10.144531 10.054688 10.199219 10.054688 10.261719 C 10.054688 10.34375 9.96875 10.460938 9.796875 10.621094 C 9.625 10.777344 9.492188 10.855469 9.40625 10.855469 C 9.339844 10.855469 9.277344 10.832031 9.222656 10.78125 L 5.8125 7.65625 C 5.464844 7.347656 5.289062 6.96875 5.289062 6.523438 C 5.289062 6.105469 5.449219 5.753906 5.765625 5.464844 C 6.078125 5.175781 6.464844 5.03125 6.917969 5.03125 C 7.40625 5.03125 7.820312 5.191406 8.15625 5.511719 L 12.988281 9.933594 C 13.542969 10.433594 13.816406 11.027344 13.816406 11.722656 Z " fill="#dcdcdc"/>
 </g>
</svg>
